backend/models/presets/GutoPro Day Boy.xmp
<x:xmpmeta xmlns:x="adobe:ns:meta/" x:xmptk="Adobe XMP Core 7.0-c000 1.000000, 0000/00/00-00:00:00        ">
 <rdf:RDF xmlns:rdf="http://www.w3.org/1999/02/22-rdf-syntax-ns#">
  <rdf:Description rdf:about=""
    xmlns:crs="http://ns.adobe.com/camera-raw-settings/1.0/"
   crs:PresetType="Normal"
   crs:Cluster=""
   crs:UUID="3FC944C45C2D0A4D99C6ED1295951BD1"
   crs:SupportsAmount2="True"
   crs:SupportsAmount="True"
   crs:SupportsColor="True"
   crs:SupportsMonochrome="True"
   crs:SupportsHighDynamicRange="True"
   crs:SupportsNormalDynamicRange="True"
   crs:SupportsSceneReferred="True"
   crs:SupportsOutputReferred="True"
   crs:RequiresRGBTables="False"
   crs:ShowInPresets="True"
   crs:ShowInQuickActions="False"
   crs:CameraModelRestriction=""
   crs:Copyright=""
   crs:ContactInfo=""
   crs:Version="18.4"
   crs:CompatibleVersion="251854848"
   crs:ProcessVersion="15.4"
   crs:WhiteBalance="Custom"
   crs:IncrementalTemperature="+10"
   crs:IncrementalTint="+6"
   crs:Exposure2012="0.00"
   crs:Contrast2012="-10"
   crs:Highlights2012="-10"
   crs:Shadows2012="+30"
   crs:Whites2012="-14"
   crs:Blacks2012="-11"
   crs:Texture="0"
   crs:Clarity2012="0"
   crs:Dehaze="+6"
   crs:Vibrance="+3"
   crs:Saturation="-2"
   crs:ParametricShadows="0"
   crs:ParametricDarks="0"
   crs:ParametricLights="0"
   crs:ParametricHighlights="0"
   crs:ParametricShadowSplit="25"
   crs:ParametricMidtoneSplit="50"
   crs:ParametricHighlightSplit="75"
   crs:Sharpness="0"
   crs:LuminanceSmoothing="12"
   crs:LuminanceNoiseReductionDetail="50"
   crs:LuminanceNoiseReductionContrast="0"
   crs:ColorNoiseReduction="0"
   crs:HueAdjustmentRed="0"
   crs:HueAdjustmentOrange="-1"
   crs:HueAdjustmentYellow="-23"
   crs:HueAdjustmentGreen="+2"
   crs:HueAdjustmentAqua="+6"
   crs:HueAdjustmentBlue="-5"
   crs:HueAdjustmentPurple="-25"
   crs:HueAdjustmentMagenta="-2"
   crs:SaturationAdjustmentRed="+3"
   crs:SaturationAdjustmentOrange="-10"
   crs:SaturationAdjustmentYellow="-15"
   crs:SaturationAdjustmentGreen="-7"
   crs:SaturationAdjustmentAqua="+9"
   crs:SaturationAdjustmentBlue="+1"
   crs:SaturationAdjustmentPurple="-25"
   crs:SaturationAdjustmentMagenta="-2"
   crs:LuminanceAdjustmentRed="+7"
   crs:LuminanceAdjustmentOrange="+5"
   crs:LuminanceAdjustmentYellow="+3"
   crs:LuminanceAdjustmentGreen="+26"
   crs:LuminanceAdjustmentAqua="+4"
   crs:LuminanceAdjustmentBlue="-3"
   crs:LuminanceAdjustmentPurple="0"
   crs:LuminanceAdjustmentMagenta="-3"
   crs:SplitToningShadowHue="0"
   crs:SplitToningShadowSaturation="0"
   crs:SplitToningHighlightHue="0"
   crs:SplitToningHighlightSaturation="0"
   crs:SplitToningBalance="0"
   crs:ColorGradeMidtoneHue="0"
   crs:ColorGradeMidtoneSat="0"
   crs:ColorGradeShadowLum="0"
   crs:ColorGradeMidtoneLum="0"
   crs:ColorGradeHighlightLum="0"
   crs:ColorGradeBlending="50"
   crs:ColorGradeGlobalHue="0"
   crs:ColorGradeGlobalSat="0"
   crs:ColorGradeGlobalLum="0"
   crs:AutoLateralCA="1"
   crs:LensProfileEnable="1"
   crs:DefringePurpleAmount="0"
   crs:DefringePurpleHueLo="30"
   crs:DefringePurpleHueHi="70"
   crs:DefringeGreenAmount="0"
   crs:DefringeGreenHueLo="40"
   crs:DefringeGreenHueHi="60"
   crs:GrainAmount="0"
   crs:PostCropVignetteAmount="+3"
   crs:PostCropVignetteMidpoint="50"
   crs:PostCropVignetteFeather="50"
   crs:PostCropVignetteRoundness="0"
   crs:PostCropVignetteStyle="1"
   crs:ShadowTint="0"
   crs:RedHue="0"
   crs:RedSaturation="0"
   crs:GreenHue="0"
   crs:GreenSaturation="0"
   crs:BlueHue="0"
   crs:BlueSaturation="0"
   crs:HDREditMode="0"
   crs:CurveRefineSaturation="100"
   crs:ConvertToGrayscale="False"
   crs:OverrideLookVignette="True"
   crs:ToneCurveName2012="Custom"
   crs:CameraProfile="Embedded"
   crs:CameraProfileDigest="594D92DCABEEABABE349C650F31FA89C"
   crs:LensProfileSetup="Custom"
   crs:LensProfileName="Adobe (Canon EF 24-105mm f/4 L IS USM)"
   crs:LensProfileFilename="Canon EOS-1Ds Mark III (Canon EF 24-105mm f4 L IS USM).lcp"
   crs:LensProfileDigest="9BC25F9F72758E79F640EC3EF0EF65DF"
   crs:LensProfileIsEmbedded="False"
   crs:LensProfileDistortionScale="100"
   crs:LensProfileVignettingScale="100"
   crs:HasSettings="True">
   <crs:Name>
    <rdf:Alt>
     <rdf:li xml:lang="x-default">GutoPro Day Boy</rdf:li>
    </rdf:Alt>
   </crs:Name>
   <crs:ShortName>
    <rdf:Alt>
     <rdf:li xml:lang="x-default"/>
    </rdf:Alt>
   </crs:ShortName>
   <crs:SortName>
    <rdf:Alt>
     <rdf:li xml:lang="x-default"/>
    </rdf:Alt>
   </crs:SortName>
   <crs:Group>
    <rdf:Alt>
     <rdf:li xml:lang="x-default">Ajustes preestablecidos del usuario</rdf:li>
    </rdf:Alt>
   </crs:Group>
   <crs:Description>
    <rdf:Alt>
     <rdf:li xml:lang="x-default"/>
    </rdf:Alt>
   </crs:Description>
   <crs:ToneCurvePV2012>
    <rdf:Seq>
     <rdf:li>0, 0</rdf:li>
     <rdf:li>177, 183</rdf:li>
     <rdf:li>255, 255</rdf:li>
    </rdf:Seq>
   </crs:ToneCurvePV2012>
   <crs:ToneCurvePV2012Red>
    <rdf:Seq>
     <rdf:li>0, 0</rdf:li>
     <rdf:li>98, 97</rdf:li>
     <rdf:li>255, 255</rdf:li>
    </rdf:Seq>
   </crs:ToneCurvePV2012Red>
   <crs:ToneCurvePV2012Green>
    <rdf:Seq>
     <rdf:li>0, 0</rdf:li>
     <rdf:li>255, 255</rdf:li>
    </rdf:Seq>
   </crs:ToneCurvePV2012Green>
   <crs:ToneCurvePV2012Blue>
    <rdf:Seq>
     <rdf:li>0, 0</rdf:li>
     <rdf:li>255, 255</rdf:li>
    </rdf:Seq>
   </crs:ToneCurvePV2012Blue>
   <crs:PointColors>
    <rdf:Seq>
     <rdf:li>-1.000000, -1.000000, -1.000000, -1.000000, -1.000000, -1.000000, -1.000000, -1.000000, -1.000000, -1.000000, -1.000000, -1.000000, -1.000000, -1.000000, -1.000000, -1.000000, -1.000000, -1.000000, -1.000000</rdf:li>
    </rdf:Seq>
   </crs:PointColors>
   <crs:ColorVariance>
    <rdf:Seq>
     <rdf:li>-50.000000</rdf:li>
    </rdf:Seq>
   </crs:ColorVariance>
   <crs:MaskGroupBasedCorrections>
    <rdf:Seq>
     <rdf:li>
      <rdf:Description
       crs:What="Correction"
       crs:CorrectionAmount="1"
       crs:CorrectionActive="true"
       crs:CorrectionName="Facial Skin"
       crs:CorrectionSyncID="66C3C1B911B93A1959247514741E6412"
       crs:LocalExposure="0"
       crs:LocalHue="0"
       crs:LocalSaturation="0"
       crs:LocalContrast="0"
       crs:LocalClarity="0"
       crs:LocalSharpness="0"
       crs:LocalBrightness="0"
       crs:LocalToningHue="0"
       crs:LocalToningSaturation="0"
       crs:LocalExposure2012="0"
       crs:LocalContrast2012="0"
       crs:LocalHighlights2012="0"
       crs:LocalShadows2012="0"
       crs:LocalWhites2012="0"
       crs:LocalBlacks2012="0"
       crs:LocalClarity2012="-0.1"
       crs:LocalDehaze="0"
       crs:LocalLuminanceNoise="0"
       crs:LocalMoire="0"
       crs:LocalDefringe="0"
       crs:LocalTemperature="0"
       crs:LocalTint="0"
       crs:LocalTexture="-0.2"
       crs:LocalCurveRefineSaturation="100">
      <crs:CorrectionMasks>
       <rdf:Seq>
        <rdf:li
         crs:What="Mask/Image"
         crs:MaskActive="true"
         crs:MaskName="Facial Skin"
         crs:MaskBlendMode="0"
         crs:MaskInverted="false"
         crs:MaskSyncID="2C3C3759536940D8B9187FE7D7AECF31"
         crs:MaskValue="1"
         crs:MaskVersion="1"
         crs:MaskSubType="3"
         crs:MaskSubCategoryID="2"
         crs:ReferencePoint="0.500000 0.500000"
         crs:LocalInputDigest="95D53C3B93381A08E43D0C85BE7CA306"
         crs:LocalInputDigestVersion="1"
         crs:ErrorReason="0"/>
       </rdf:Seq>
      </crs:CorrectionMasks>
      </rdf:Description>
     </rdf:li>
     <rdf:li>
      <rdf:Description
       crs:What="Correction"
       crs:CorrectionAmount="1"
       crs:CorrectionActive="true"
       crs:CorrectionName="Eye Sclera"
       crs:CorrectionSyncID="871D641F2B4C3D4DF28E056080DFD9E8"
       crs:LocalExposure="0"
       crs:LocalHue="0"
       crs:LocalSaturation="-0.6"
       crs:LocalContrast="0"
       crs:LocalClarity="0"
       crs:LocalSharpness="0"
       crs:LocalBrightness="0"
       crs:LocalToningHue="0"
       crs:LocalToningSaturation="0"
       crs:LocalExposure2012="0.0375"
       crs:LocalContrast2012="0"
       crs:LocalHighlights2012="0"
       crs:LocalShadows2012="0"
       crs:LocalWhites2012="0"
       crs:LocalBlacks2012="0"
       crs:LocalClarity2012="0"
       crs:LocalDehaze="0"
       crs:LocalLuminanceNoise="0"
       crs:LocalMoire="0"
       crs:LocalDefringe="0"
       crs:LocalTemperature="0"
       crs:LocalTint="0"
       crs:LocalTexture="0"
       crs:LocalCurveRefineSaturation="100">
      <crs:CorrectionMasks>
       <rdf:Seq>
        <rdf:li
         crs:What="Mask/Image"
         crs:MaskActive="true"
         crs:MaskName="Eye Sclera"
         crs:MaskBlendMode="0"
         crs:MaskInverted="false"
         crs:MaskSyncID="18D2EFA6F3994154B16B26ABE5AEE298"
         crs:MaskValue="1"
         crs:MaskVersion="1"
         crs:MaskSubType="3"
         crs:MaskSubCategoryID="8"
         crs:ReferencePoint="0.500000 0.500000"
         crs:LocalInputDigest="95D53C3B93381A08E43D0C85BE7CA306"
         crs:LocalInputDigestVersion="1"
         crs:ErrorReason="0"/>
       </rdf:Seq>
      </crs:CorrectionMasks>
      </rdf:Description>
     </rdf:li>
     <rdf:li>
      <rdf:Description
       crs:What="Correction"
       crs:CorrectionAmount="1"
       crs:CorrectionActive="true"
       crs:CorrectionName="Iris and Pupil"
       crs:CorrectionSyncID="E6F00A6F6302C12A05D5BB23A750C69D"
       crs:LocalExposure="0"
       crs:LocalHue="0"
       crs:LocalSaturation="0.4"
       crs:LocalContrast="0"
       crs:LocalClarity="0"
       crs:LocalSharpness="0"
       crs:LocalBrightness="0"
       crs:LocalToningHue="0"
       crs:LocalToningSaturation="0"
       crs:LocalExposure2012="0.1075"
       crs:LocalContrast2012="0"
       crs:LocalHighlights2012="0"
       crs:LocalShadows2012="0"
       crs:LocalWhites2012="0"
       crs:LocalBlacks2012="0"
       crs:LocalClarity2012="0.1"
       crs:LocalDehaze="0"
       crs:LocalLuminanceNoise="0"
       crs:LocalMoire="0"
       crs:LocalDefringe="0"
       crs:LocalTemperature="0"
       crs:LocalTint="0"
       crs:LocalTexture="0"
       crs:LocalCurveRefineSaturation="100">
      <crs:CorrectionMasks>
       <rdf:Seq>
        <rdf:li
         crs:What="Mask/Image"
         crs:MaskActive="true"
         crs:MaskName="Iris and Pupil"
         crs:MaskBlendMode="0"
         crs:MaskInverted="false"
         crs:MaskSyncID="CF8C94BF5CAD4D53B21413AAC6EF0C82"
         crs:MaskValue="1"
         crs:MaskVersion="1"
         crs:MaskSubType="3"
         crs:MaskSubCategoryID="3"
         crs:ReferencePoint="0.500000 0.500000"
         crs:LocalInputDigest="95D53C3B93381A08E43D0C85BE7CA306"
         crs:LocalInputDigestVersion="1"
         crs:ErrorReason="0"/>
       </rdf:Seq>
      </crs:CorrectionMasks>
      </rdf:Description>
     </rdf:li>
     <rdf:li>
      <rdf:Description
       crs:What="Correction"
       crs:CorrectionAmount="1"
       crs:CorrectionActive="true"
       crs:CorrectionName="Teeth"
       crs:CorrectionSyncID="D9156518FDBEF8307422ED84D1BCCFB8"
       crs:LocalExposure="0"
       crs:LocalHue="0"
       crs:LocalSaturation="-0.3"
       crs:LocalContrast="0"
       crs:LocalClarity="0"
       crs:LocalSharpness="0"
       crs:LocalBrightness="0"
       crs:LocalToningHue="0"
       crs:LocalToningSaturation="0"
       crs:LocalExposure2012="0.0375"
       crs:LocalContrast2012="0"
       crs:LocalHighlights2012="0"
       crs:LocalShadows2012="0"
       crs:LocalWhites2012="0"
       crs:LocalBlacks2012="0"
       crs:LocalClarity2012="0"
       crs:LocalDehaze="0"
       crs:LocalLuminanceNoise="0"
       crs:LocalMoire="0"
       crs:LocalDefringe="0"
       crs:LocalTemperature="0"
       crs:LocalTint="0"
       crs:LocalTexture="0"
       crs:LocalCurveRefineSaturation="100">
      <crs:CorrectionMasks>
       <rdf:Seq>
        <rdf:li
         crs:What="Mask/Image"
         crs:MaskActive="true"
         crs:MaskName="Teeth"
         crs:MaskBlendMode="0"
         crs:MaskInverted="false"
         crs:MaskSyncID="6FC07E5290A244829158383B13D28593"
         crs:MaskValue="1"
         crs:MaskVersion="1"
         crs:MaskSubType="3"
         crs:MaskSubCategoryID="12"
         crs:ReferencePoint="0.500000 0.500000"
         crs:LocalInputDigest="95D53C3B93381A08E43D0C85BE7CA306"
         crs:LocalInputDigestVersion="1"
         crs:ErrorReason="0"/>
       </rdf:Seq>
      </crs:CorrectionMasks>
      </rdf:Description>
     </rdf:li>
     <rdf:li>
      <rdf:Description
       crs:What="Correction"
       crs:CorrectionAmount="1"
       crs:CorrectionActive="true"
       crs:CorrectionName="Pop"
       crs:CorrectionSyncID="0D2D4F1B6D8FED7636432FC14071A889"
       crs:LocalExposure="0"
       crs:LocalHue="0"
       crs:LocalSaturation="0"
       crs:LocalContrast="0"
       crs:LocalClarity="0"
       crs:LocalSharpness="0"
       crs:LocalBrightness="0"
       crs:LocalToningHue="0"
       crs:LocalToningSaturation="0"
       crs:LocalExposure2012="0.0625"
       crs:LocalContrast2012="0"
       crs:LocalHighlights2012="-0.06"
       crs:LocalShadows2012="0.06"
       crs:LocalWhites2012="0"
       crs:LocalBlacks2012="0"
       crs:LocalClarity2012="0.100987"
       crs:LocalDehaze="0"
       crs:LocalLuminanceNoise="0"
       crs:LocalMoire="0"
       crs:LocalDefringe="0"
       crs:LocalTemperature="0"
       crs:LocalTint="0"
       crs:LocalTexture="0.095512"
       crs:LocalCurveRefineSaturation="100">
      <crs:CorrectionMasks>
       <rdf:Seq>
        <rdf:li
         crs:What="Mask/Image"
         crs:MaskActive="true"
         crs:MaskName="Sujeto 1"
         crs:MaskBlendMode="0"
         crs:MaskInverted="false"
         crs:MaskSyncID="09A5FD709869476988BF81CCCFB3265E"
         crs:MaskValue="1"
         crs:MaskVersion="1"
         crs:MaskSubType="1"
         crs:ReferencePoint="0.500000 0.500000"
         crs:LocalInputDigest="95D53C3B93381A08E43D0C85BE7CA306"
         crs:LocalInputDigestVersion="1"
         crs:ErrorReason="0"/>
       </rdf:Seq>
      </crs:CorrectionMasks>
      </rdf:Description>
     </rdf:li>
    </rdf:Seq>
   </crs:MaskGroupBasedCorrections>
  </rdf:Description>
 </rdf:RDF>
</x:xmpmeta>
